public/work/imported/logos/brighton-dome.svg

<svg width="264" height="241" viewBox="0 0 264 241" fill="none" xmlns="http://www.w3.org/2000/svg">
<path d="M124.954 0.01044H0.00694501V8.80477H0.152642C2.50432 8.80794 4.81494 9.42315 6.85867 10.5903C8.90239 11.7574 10.6093 13.4365 11.8125 15.4635C13.0158 17.4905 13.6742 19.7959 13.7234 22.1546C13.7726 24.5132 13.211 26.8443 12.0933 28.92L16.7975 32.2053C18.0375 30.2318 19.7622 28.6111 21.8061 27.4986C23.8501 26.386 26.1447 25.8191 28.4698 25.852C30.795 25.8849 33.0728 26.5167 35.0846 27.6867C37.0964 28.8566 38.7748 30.5256 39.9587 32.5334C41.1427 34.5412 41.7925 36.8205 41.8458 39.1527C41.8992 41.4849 41.3543 43.7917 40.2633 45.8518C39.1724 47.912 37.5721 49.6564 35.6159 50.9177C33.6597 52.179 31.4133 52.9149 29.092 53.0548V59.4165H29.1371C32.709 59.4172 36.1365 60.8304 38.6764 63.3497C41.2163 65.8691 42.6638 69.2913 42.7049 72.8742V167.882C42.703 167.908 42.703 167.933 42.7049 167.959V168.014C42.6929 171.618 41.2579 175.069 38.7142 177.613C36.1705 180.157 32.7255 181.586 29.1337 181.587H29.092V187.949C31.4121 188.09 33.6571 188.827 35.6118 190.088C37.5665 191.35 39.1653 193.094 40.2549 195.154C41.3445 197.214 41.8884 199.52 41.8344 201.851C41.7804 204.182 41.1303 206.46 39.9465 208.467C38.7627 210.473 37.0848 212.141 35.0738 213.311C33.0628 214.48 30.7861 215.111 28.462 215.144C26.1378 215.177 23.8442 214.61 21.8011 213.499C19.758 212.387 18.0338 210.767 16.794 208.795L12.0829 212.083C13.2056 214.158 13.7715 216.49 13.7251 218.85C13.6787 221.21 13.0215 223.517 11.8181 225.545C10.6147 227.574 8.90635 229.254 6.86066 230.42C4.81497 231.586 2.50219 232.199 0.14917 232.199H0V241H124.954C218.249 241 264 186.779 264 120.5C264 54.2206 218.249 0 124.954 0V0.01044ZM125.357 228.141H123.757C90.9222 228.141 86.5199 211.039 86.5199 170.875V13.5378H125.357C191.183 13.5378 213.92 73.5181 213.92 120.51C213.92 167.503 191.183 228.151 125.357 228.151" fill="black"/>
<path d="M105.833 83.256C105.108 83.2383 104.387 83.3815 103.714 83.677C103.041 83.9724 102.431 84.4139 101.919 84.9746C101.408 85.5354 101.007 86.2036 100.739 86.9387C100.472 87.6738 100.345 88.4605 100.365 89.2509C100.412 91.1166 101.114 92.8914 102.326 94.2091L102.98 93.6246C102.173 92.6357 101.693 91.3819 101.614 90.0616C101.614 86.7248 103.782 85.4617 106.576 85.85V93.6586C109.132 94.4353 111.272 92.1504 111.272 89.2509C111.272 86.2346 108.983 83.256 105.833 83.256V83.256ZM107.676 91.4227V86.0461C109.132 86.4985 110.097 87.6975 110.097 89.0888C110.097 91.2266 108.641 91.7809 107.676 91.4227Z" fill="black"/>
<path d="M107.605 73.3593C109.153 73.3593 110.102 75.485 110.102 76.5266C110.102 78.1068 109.051 78.6878 107.431 78.6878H105.98C103.338 78.6878 103.076 78.4752 103.076 76.7994H102.554V83.2546H103.076C103.076 81.2457 103.5 80.849 105.98 80.849H107.553C109.675 80.849 111.272 80.0589 111.272 77.3486C111.272 75.5524 110.224 73.7845 109.4 73.0972C110.546 72.6685 111.272 71.7261 111.272 69.8696C111.272 68.0982 110.323 66.7342 109.475 65.9122C110.085 65.8045 110.687 65.6314 111.272 65.395L110.645 61.3455H110.123C110.123 63.3543 109.725 63.7475 107.219 63.7475H105.971C103.477 63.7475 103.068 63.3543 103.068 61.3455H102.545V67.8006H103.068C103.068 66.1248 103.393 65.9122 105.971 65.9122H107.605C109.153 65.9122 110.102 67.9813 110.102 69.0477C110.102 70.6313 109.051 71.2407 107.431 71.2407H105.98C103.338 71.2407 103.076 70.9962 103.076 69.3205H102.554V75.2866H103.076C103.076 73.5825 103.367 73.37 105.98 73.37L107.605 73.3593Z" fill="black"/>
<path d="M105.832 48.2C102.829 48.2 100.363 51.1607 100.363 54.7727C100.363 58.3847 102.829 61.3454 105.832 61.3454C108.834 61.3454 111.272 58.3809 111.272 54.7727C111.272 51.1645 108.851 48.2 105.832 48.2ZM105.832 58.7065C103.452 58.7065 101.522 57.4722 101.522 54.7727C101.522 52.0732 103.452 50.8351 105.832 50.8351C108.211 50.8351 110.141 52.1035 110.141 54.7727C110.141 57.4419 108.208 58.7065 105.832 58.7065Z" fill="black"/>
<path d="M119.38 28.4818C119.38 30.886 118.916 31.2333 115.995 31.2333H106.54C103.632 31.2333 103.154 30.8961 103.154 28.4818H102.545V36.3317C102.545 43.0755 106.472 46.0091 111.272 46.0091C116.073 46.0091 119.999 43.0822 119.999 36.3317V28.4818H119.38ZM118.916 36.362C118.916 42.01 114.668 43.2272 111.265 43.2272C107.863 43.2272 103.615 42.01 103.615 36.362V36.2608C103.615 33.9005 104.078 33.5633 107 33.5633H118.93L118.916 36.362Z" fill="black"/>
<path d="M135.201 116.353C135.962 116.248 136.711 116.073 137.44 115.83L136.662 111.736H136.008C136.008 113.767 135.512 114.168 132.392 114.168H130.841C127.735 114.168 127.203 113.767 127.203 111.736H126.552V118.509H127.203C127.203 116.6 127.641 116.36 130.841 116.36H132.862C134.569 116.36 135.968 118.208 135.968 119.902C135.968 121.747 134.663 122.456 132.641 122.456H130.833C127.727 122.456 127.196 122.026 127.196 120.024H126.545V127.073H127.196C127.196 125.01 127.727 124.641 130.833 124.641H132.822C135.462 124.641 137.454 123.409 137.454 120.64C137.435 119.805 137.224 118.985 136.836 118.243C136.448 117.501 135.894 116.857 135.216 116.36" fill="black"/>
<path d="M132.015 98.5909C129.012 98.5909 126.545 101.058 126.545 104.068C126.545 107.078 129.012 109.545 132.015 109.545C135.018 109.545 137.454 107.078 137.454 104.068C137.454 101.058 135.032 98.5909 132.015 98.5909ZM132.015 107.35C129.638 107.35 127.704 106.318 127.704 104.068C127.704 101.819 129.652 100.8 132.015 100.8C134.378 100.8 136.326 101.86 136.326 104.081C136.326 106.302 134.395 107.362 132.015 107.362" fill="black"/>
<path d="M135.507 91.2054H129.76C127.541 91.2054 126.545 92.2046 126.545 93.6499C126.545 94.5177 127.227 95.6728 128.2 96.4L128.684 95.9539C128.055 95.3427 127.69 94.7316 127.69 94.2458C127.69 93.4055 128.402 93.0632 129.766 93.0632H135.514V95.3489H136.507V93.0816H139.636V92.1649C137.785 91.9815 136.563 91.404 136.193 89.8273H135.511L135.507 91.2054Z" fill="black"/>
<path d="M126.545 89.8273H127.137C127.137 87.7033 127.621 87.294 130.446 87.294H132.239C134.644 87.294 136.453 86.3131 136.453 83.3963C136.453 81.5525 135.377 80.1329 134.417 79.2442H143.999L143.292 74.491H142.697C142.697 76.615 142.22 76.9948 139.407 76.9948H130.476C127.65 76.9948 127.167 76.626 127.167 74.491H126.575V81.2428H127.167C127.167 79.4986 127.535 79.2442 130.476 79.2442H132.315C133.923 79.2442 135.141 81.0879 135.141 82.6662C135.141 84.3145 133.953 85.0741 132.114 85.0741H130.469C127.558 85.0741 127.16 84.8197 127.16 82.8247H126.568L126.545 89.8273Z" fill="black"/>
<path d="M136.233 70.9118C137.025 70.1485 137.454 69.1662 137.44 68.1528C137.44 65.9705 135.5 64.1623 133.117 64.1623C131.399 64.1623 130 65.0726 129.234 66.4132C128.727 65.0196 127.835 64.1623 126.691 64.1623C124.781 64.1623 123.989 65.7679 123.73 67.9657C123.474 70.2166 122.989 71.5572 121.509 71.5572C120.028 71.5572 119.058 69.8955 119.058 68.2339C119.058 66.117 120.491 63.492 123.448 65.7149L123.796 65.2348C121.76 61.9395 117.818 63.7071 117.818 68.2339C117.818 70.8588 119.44 72.9757 122.079 72.9757C124.018 72.9757 125.895 71.7972 126.247 68.0998C126.339 67.2144 126.617 65.6619 127.453 65.6619C128.29 65.6619 128.63 67.4825 128.79 68.661C129.078 70.4037 130.762 72.1464 133.117 72.1464C134.06 72.145 134.975 71.871 135.708 71.3701C135.993 71.5841 136.175 71.8794 136.218 72.1994C136.218 73.2968 134.69 72.6265 134.786 73.8049C134.849 74.8774 137.455 74.7714 137.455 72.9227C137.364 72.1491 136.934 71.432 136.248 70.9118H136.233ZM133.131 70.0826C131.281 70.0826 129.856 69.459 129.856 68.1528C129.856 66.8465 131.288 66.1981 133.131 66.1981C134.975 66.1981 136.437 66.8403 136.437 68.1528C136.437 69.4653 135.008 70.0826 133.131 70.0826Z" fill="black"/>
<path d="M140.751 61.3452C140.965 61.336 141.174 61.1998 141.35 60.9536C141.527 60.7074 141.663 60.3621 141.742 59.961C141.821 59.5599 141.839 59.1209 141.795 58.699C141.75 58.2771 141.644 57.891 141.491 57.5892C141.337 57.2874 141.143 57.0833 140.932 57.0025C140.721 56.9216 140.503 56.9676 140.305 57.1347C140.107 57.3018 139.938 57.5826 139.819 57.9418C139.7 58.3011 139.637 58.7228 139.637 59.1542C139.637 59.4454 139.667 59.7334 139.724 60.0016C139.78 60.2698 139.862 60.5128 139.966 60.7165C140.07 60.9203 140.192 61.0808 140.327 61.1887C140.462 61.2966 140.606 61.3498 140.751 61.3452Z" fill="black"/>
<path d="M126.556 63.5363H127.208C127.208 60.9745 127.741 60.5156 130.853 60.5156H137.454L136.675 54.7727H136.019C136.019 57.2989 135.523 57.7934 132.396 57.7934H130.842C127.73 57.7934 127.197 57.2989 127.197 54.7727H126.545L126.556 63.5363Z" fill="black"/>
<path d="M135.526 54.7728C136.305 54.7728 137.454 53.9832 137.454 52.1829C137.454 50.8708 136.457 49.3947 135.214 48.7501C135.976 48.6377 136.726 48.4499 137.454 48.1894L136.678 43.8182H136.022C136.022 45.9809 135.526 46.4081 132.398 46.4081H130.843C127.73 46.4081 127.197 45.9809 127.197 43.8182H126.545V51.3323H127.197C127.197 49.1353 127.73 48.7424 130.843 48.7424H132.554C135.047 48.7424 136.2 50.5123 136.2 51.2637C136.211 51.4073 136.192 51.5518 136.143 51.6867C136.095 51.8216 136.019 51.9436 135.921 52.0438C135.822 52.1441 135.704 52.2202 135.574 52.2667C135.445 52.3131 135.307 52.3288 135.171 52.3126C134.88 52.3153 134.602 52.4357 134.393 52.6488C134.185 52.8618 134.062 53.1512 134.051 53.4569C134.051 54.4753 134.83 54.769 135.501 54.769" fill="black"/>
<path d="M143.4 28.4818C143.4 30.9676 142.936 31.3267 140.015 31.3267H130.56C127.652 31.3267 127.154 30.978 127.154 28.4818H126.545V37.3789C126.545 41.5416 128.728 43.8182 131.433 43.8182C133.529 43.8182 135.33 42.2912 136.027 39.9832C136.813 41.3777 138.123 42.3225 139.636 42.3225C142.05 42.3225 143.999 40.3423 143.999 36.5387V28.4818H143.4ZM135.316 37.3475C135.316 39.9553 133.569 41.1825 131.447 41.1825C129.324 41.1825 127.635 39.9553 127.635 37.3475V36.5701C127.635 34.0809 128.102 33.7253 131.02 33.7253H135.326L135.316 37.3475ZM142.936 36.3888C142.936 38.6375 141.454 39.6869 139.649 39.6869C137.845 39.6869 136.389 38.641 136.389 36.3888V33.7357H142.936V36.3888Z" fill="black"/>
</svg>

<svg xmlns="http://www.w3.org/2000/svg" width="264" height="241" fill="none" viewBox="0 0 264 241"><path fill="#000" d="M124.954.01H.007v8.795h.146a13.56 13.56 0 0 1 6.706 1.785 13.6 13.6 0 0 1 4.954 4.874 13.67 13.67 0 0 1 .28 13.456l4.704 3.285a13.6 13.6 0 0 1 5.01-4.706 13.54 13.54 0 0 1 13.278.188 13.6 13.6 0 0 1 4.874 4.846 13.646 13.646 0 0 1-4.343 18.385 13.54 13.54 0 0 1-6.524 2.137v6.361h.045c3.572.001 7 1.414 9.54 3.934a13.64 13.64 0 0 1 4.028 9.524v95.14a13.64 13.64 0 0 1-3.99 9.599 13.55 13.55 0 0 1-9.581 3.974h-.042v6.362c2.32.141 4.565.878 6.52 2.139a13.6 13.6 0 0 1 4.643 5.066 13.65 13.65 0 0 1-.309 13.313 13.6 13.6 0 0 1-4.872 4.844 13.54 13.54 0 0 1-13.273.188 13.6 13.6 0 0 1-5.007-4.704l-4.711 3.288a13.66 13.66 0 0 1-.265 13.462 13.6 13.6 0 0 1-4.957 4.875 13.55 13.55 0 0 1-6.712 1.779H0V241h124.954C218.249 241 264 186.779 264 120.5 264 54.22 218.249 0 124.954 0zm.403 228.131h-1.6c-32.835 0-37.237-17.102-37.237-57.266V13.538h38.837c65.826 0 88.563 59.98 88.563 106.972 0 46.993-22.737 107.641-88.563 107.641"/><path fill="#000" d="M105.833 83.256a5 5 0 0 0-2.119.421 5.3 5.3 0 0 0-1.795 1.298 5.9 5.9 0 0 0-1.18 1.964 6.3 6.3 0 0 0-.374 2.312c.047 1.866.749 3.64 1.961 4.958l.654-.584a6.23 6.23 0 0 1-1.366-3.563c0-3.337 2.168-4.6 4.962-4.212v7.809c2.556.776 4.696-1.509 4.696-4.408 0-3.016-2.289-5.995-5.439-5.995m1.843 8.167v-5.377c1.456.453 2.421 1.651 2.421 3.043 0 2.138-1.456 2.692-2.421 2.334m-.071-18.063c1.548 0 2.497 2.125 2.497 3.167 0 1.58-1.051 2.16-2.671 2.16h-1.451c-2.642 0-2.904-.212-2.904-1.888h-.522v6.456h.522c0-2.01.424-2.406 2.904-2.406h1.573c2.122 0 3.719-.79 3.719-3.5 0-1.797-1.048-3.565-1.872-4.252 1.146-.428 1.872-1.37 1.872-3.227 0-1.772-.949-3.136-1.797-3.958a9 9 0 0 0 1.797-.517l-.627-4.05h-.522c0 2.01-.398 2.403-2.904 2.403h-1.248c-2.494 0-2.903-.394-2.903-2.402h-.523V67.8h.523c0-1.676.325-1.889 2.903-1.889h1.634c1.548 0 2.497 2.07 2.497 3.136 0 1.583-1.051 2.193-2.671 2.193h-1.451c-2.642 0-2.904-.245-2.904-1.92h-.522v5.966h.522c0-1.705.291-1.917 2.904-1.917zm-1.773-25.16c-3.003 0-5.469 2.96-5.469 6.573 0 3.612 2.466 6.572 5.469 6.572 3.002 0 5.44-2.964 5.44-6.572s-2.421-6.573-5.44-6.573m0 10.506c-2.38 0-4.31-1.234-4.31-3.933 0-2.7 1.93-3.938 4.31-3.938s4.309 1.268 4.309 3.938-1.933 3.933-4.309 3.933m13.548-30.224c0 2.404-.464 2.751-3.385 2.751h-9.455c-2.908 0-3.386-.337-3.386-2.751h-.609v7.85c0 6.743 3.927 9.677 8.727 9.677s8.727-2.927 8.727-9.677v-7.85zm-.464 7.88c0 5.648-4.248 6.865-7.651 6.865s-7.65-1.217-7.65-6.865v-.101c0-2.36.463-2.698 3.385-2.698h11.93zm16.285 79.991q1.143-.158 2.239-.523l-.778-4.094h-.654c0 2.031-.496 2.432-3.616 2.432h-1.551c-3.106 0-3.638-.401-3.638-2.432h-.651v6.773h.651c0-1.909.438-2.149 3.638-2.149h2.021c1.707 0 3.106 1.848 3.106 3.542 0 1.845-1.305 2.554-3.327 2.554h-1.808c-3.106 0-3.637-.43-3.637-2.432h-.651v7.049h.651c0-2.063.531-2.432 3.637-2.432h1.989c2.64 0 4.632-1.232 4.632-4.001a5.44 5.44 0 0 0-.618-2.397 5.5 5.5 0 0 0-1.62-1.883m-3.201-17.77c-3.003 0-5.47 2.468-5.47 5.478s2.467 5.477 5.47 5.477 5.439-2.467 5.439-5.477-2.422-5.477-5.439-5.477m0 8.76c-2.377 0-4.311-1.032-4.311-3.282s1.948-3.268 4.311-3.268 4.311 1.06 4.311 3.281-1.931 3.281-4.311 3.281m3.492-16.158h-5.747c-2.219 0-3.215 1-3.215 2.445 0 .868.682 2.023 1.655 2.75l.484-.446c-.629-.611-.994-1.222-.994-1.708 0-.84.712-1.183 2.076-1.183h5.748v2.286h.993v-2.267h3.129v-.917c-1.851-.184-3.073-.761-3.443-2.338h-.682zm-8.962-1.378h.592c0-2.124.484-2.533 3.309-2.533h1.793c2.405 0 4.214-.98 4.214-3.898 0-1.844-1.076-3.263-2.036-4.152h9.582l-.707-4.753h-.595c0 2.124-.477 2.504-3.29 2.504h-8.931c-2.826 0-3.309-.369-3.309-2.504h-.592v6.752h.592c0-1.744.368-1.999 3.309-1.999h1.839c1.608 0 2.826 1.844 2.826 3.422 0 1.648-1.188 2.408-3.027 2.408h-1.645c-2.911 0-3.309-.254-3.309-2.25h-.592z"/><path fill="#000" d="M136.233 70.912c.792-.764 1.221-1.746 1.207-2.76 0-2.181-1.94-3.99-4.323-3.99-1.718 0-3.117.91-3.883 2.251-.507-1.393-1.399-2.25-2.543-2.25-1.91 0-2.702 1.605-2.961 3.803-.256 2.25-.741 3.591-2.221 3.591-1.481 0-2.451-1.662-2.451-3.323 0-2.117 1.433-4.742 4.39-2.52l.348-.48c-2.036-3.294-5.978-1.527-5.978 3 0 2.625 1.622 4.742 4.261 4.742 1.939 0 3.816-1.179 4.168-4.876.092-.886.37-2.438 1.206-2.438.837 0 1.177 1.82 1.337 2.999.288 1.743 1.972 3.485 4.327 3.485.943-.001 1.858-.275 2.591-.776.285.214.467.51.51.83 0 1.097-1.528.426-1.432 1.605.063 1.072 2.669.966 2.669-.882-.091-.774-.521-1.491-1.207-2.011zm-3.102-.83c-1.85 0-3.275-.623-3.275-1.93 0-1.305 1.432-1.954 3.275-1.954 1.844 0 3.306.642 3.306 1.955 0 1.312-1.429 1.93-3.306 1.93m7.62-8.738c.214-.009.423-.145.599-.391.177-.247.313-.592.392-.993a4.3 4.3 0 0 0 .053-1.262 3.3 3.3 0 0 0-.304-1.11c-.154-.302-.348-.506-.559-.587s-.429-.034-.627.133-.367.448-.486.807-.182.78-.182 1.212c0 .291.03.58.087.848s.138.51.242.715c.104.203.226.364.361.472a.64.64 0 0 0 .424.156"/><path fill="#000" d="M126.556 63.536h.652c0-2.562.533-3.02 3.645-3.02h6.601l-.779-5.743h-.656c0 2.526-.496 3.02-3.623 3.02h-1.554c-3.112 0-3.645-.494-3.645-3.02h-.652z"/><path fill="#000" d="M135.526 54.773c.779 0 1.928-.79 1.928-2.59 0-1.312-.997-2.788-2.24-3.433.762-.112 1.512-.3 2.24-.56l-.776-4.372h-.656c0 2.163-.496 2.59-3.624 2.59h-1.555c-3.113 0-3.646-.427-3.646-2.59h-.652v7.514h.652c0-2.197.533-2.59 3.646-2.59h1.711c2.493 0 3.646 1.77 3.646 2.522a1 1 0 0 1-.279.78.9.9 0 0 1-.347.223.9.9 0 0 1-.403.046 1.1 1.1 0 0 0-.778.336 1.22 1.22 0 0 0-.342.808c0 1.018.779 1.312 1.45 1.312"/><path fill="#000" d="M143.4 28.482c0 2.486-.464 2.845-3.385 2.845h-9.455c-2.908 0-3.406-.349-3.406-2.845h-.609v8.897c0 4.163 2.183 6.44 4.888 6.44 2.096 0 3.897-1.528 4.594-3.836.786 1.395 2.096 2.34 3.609 2.34 2.414 0 4.363-1.98 4.363-5.784v-8.057zm-8.084 8.865c0 2.608-1.747 3.835-3.869 3.835-2.123 0-3.812-1.227-3.812-3.835v-.777c0-2.49.467-2.845 3.385-2.845h4.306zm7.62-.958c0 2.249-1.482 3.298-3.287 3.298s-3.26-1.046-3.26-3.298v-2.653h6.547z"/></svg>
